airbyte/airbyte-config/init/src/main/resources/icons/hubspot.svg

<svg xmlns="http://www.w3.org/2000/svg" xmlns:xlink="http://www.w3.org/1999/xlink" width="142.88" height="148.18" viewBox="52 48 146.884 152.176"><defs><path id="a" d="M156.8 155.78c-11.07 0-20.04-8.88-20.04-19.83 0-10.96 8.97-19.83 20.04-19.83 11.07 0 20.04 8.87 20.04 19.83 0 10.95-8.97 19.83-20.04 19.83m6-58.01V80.13c4.65-2.18 7.91-6.84 7.91-12.24v-.41c0-7.46-6.17-13.56-13.71-13.56h-.41c-7.54 0-13.71 6.1-13.71 13.56v.41c0 5.4 3.26 10.06 7.92 12.24v17.64c-6.93 1.06-13.26 3.89-18.48 8.05-4.9-3.77-44.05-33.91-48.95-37.68.33-1.23.55-2.49.55-3.82.01-8.45-6.9-15.31-15.44-15.32-8.54-.01-15.47 6.83-15.48 15.28-.01 8.45 6.9 15.31 15.44 15.32 2.78.01 5.36-.78 7.62-2.05 4.81 3.71 43.33 33.36 48.14 37.07-4.09 6.11-6.49 13.44-6.49 21.33 0 8.25 2.64 15.89 7.09 22.17-1.46 1.45-13.18 13.04-14.64 14.49-1.16-.34-2.36-.58-3.63-.58-7.02 0-12.71 5.63-12.71 12.57 0 6.95 5.69 12.58 12.71 12.58 7.02 0 12.71-5.63 12.71-12.58 0-1.25-.25-2.44-.59-3.59 1.44-1.43 13.03-12.9 14.48-14.33 6.57 4.96 14.76 7.95 23.67 7.95 21.59 0 39.08-17.32 39.08-38.68 0-19.34-14.35-35.32-33.08-38.18"/></defs><use xlink:href="#a" fill="#ff7a59"/><use xlink:href="#a" fill-opacity="0" stroke="#000" stroke-opacity="0"/></svg>

<?xml version="1.0" encoding="UTF-8" standalone="no"?>
<!DOCTYPE svg PUBLIC "-//W3C//DTD SVG 1.1//EN" "http://www.w3.org/Graphics/SVG/1.1/DTD/svg11.dtd">
<svg version="1.1" xmlns="http://www.w3.org/2000/svg" xmlns:xlink="http://www.w3.org/1999/xlink" preserveAspectRatio="xMidYMid meet" viewBox="52.00000000000005 47.99999999999999 146.884 152.176" width="142.88" height="148.18"><defs><path d="M156.8 155.78C145.73 155.78 136.76 146.9 136.76 135.95C136.76 124.99 145.73 116.12 156.8 116.12C167.87 116.12 176.84 124.99 176.84 135.95C176.84 146.9 167.87 155.78 156.8 155.78M162.8 97.77C162.8 87.18 162.8 81.3 162.8 80.13C167.45 77.95 170.71 73.29 170.71 67.89C170.71 67.85 170.71 67.52 170.71 67.48C170.71 60.02 164.54 53.92 157 53.92C156.96 53.92 156.63 53.92 156.59 53.92C149.05 53.92 142.88 60.02 142.88 67.48C142.88 67.52 142.88 67.85 142.88 67.89C142.88 73.29 146.14 77.95 150.8 80.13C150.8 81.89 150.8 96 150.8 97.77C143.87 98.83 137.54 101.66 132.32 105.82C127.42 102.05 88.27 71.91 83.37 68.14C83.7 66.91 83.92 65.65 83.92 64.32C83.93 55.87 77.02 49.01 68.48 49C59.94 48.99 53.01 55.83 53 64.28C52.99 72.73 59.9 79.59 68.44 79.6C71.22 79.61 73.8 78.82 76.06 77.55C80.87 81.26 119.39 110.91 124.2 114.62C120.11 120.73 117.71 128.06 117.71 135.95C117.71 144.2 120.35 151.84 124.8 158.12C123.34 159.57 111.62 171.16 110.16 172.61C109 172.27 107.8 172.03 106.53 172.03C99.51 172.03 93.82 177.66 93.82 184.6C93.82 191.55 99.51 197.18 106.53 197.18C113.55 197.18 119.24 191.55 119.24 184.6C119.24 183.35 118.99 182.16 118.65 181.01C120.09 179.58 131.68 168.11 133.13 166.68C139.7 171.64 147.89 174.63 156.8 174.63C178.39 174.63 195.88 157.31 195.88 135.95C195.88 116.61 181.53 100.63 162.8 97.77" id="cayyrSyXb"></path></defs><g><g><use xlink:href="#cayyrSyXb" opacity="1" fill="#ff7a59" fill-opacity="1"></use><g><use xlink:href="#cayyrSyXb" opacity="1" fill-opacity="0" stroke="#000000" stroke-width="1" stroke-opacity="0"></use></g></g></g></svg>
